X: 10532
T: Doonagore, The
R: reel
M: 4/4
K: Gmajor
DGG2 FGAc|BGGB ABcA|d2cA BGG2|1 BdcA G2GE:|2 BdcAG4||
g2ge fddd|faag fdd2|gage fdd2|defd g3d|
gage fdd2\BGGB A2cA|d2cA BGG2|BdcAG4||

